X:42
T:Willy Walsh's Hornpipe
R:hornpipe
H:Also played in G, see #39
Z:id:hn-hornpipe-42
M:C|
K:A
cB|(3ABc EF Acec|(3def Bc def2|fece aecA|(3Bcd cA BAFG|
(3ABc EF Acec|(3def Bc def2|fece aecA|(3Bcd cB A2:|
|:(3cde|ae (3cde fe (3cde|ae (3cde fecB|AB (3cde aecA|(3Bcd cA BAFG|
(3ABc EF Acec|(3def Bc def2|fece aecA|(3Bcd cB A2:|
<end>
<start>
